src/actions/16/vcs-branch.svg

<svg viewBox="0 0 16 16" xmlns="http://www.w3.org/2000/svg">
    <style type="text/css" id="current-color-scheme">
        .ColorScheme-Text {
            color:#363636;
        }
        .ColorScheme-Highlight {
            color:#a0b6cb;
        }
    </style>
    <g stroke-linecap="square">
        <g class="ColorScheme-Text" fill="currentColor">
            <path d="m3.5 2a1.5 1.5 0 0 0 -1.5 1.5 1.5 1.5 0 0 0 1.5 1.5 1.5 1.5 0 0 0 1.5-1.5 1.5 1.5 0 0 0 -1.5-1.5zm-.0117188 1a.5.5 0 0 1 .0117188 0 .5.5 0 0 1 .5.5.5.5 0 0 1 -.5.5.5.5 0 0 1 -.5-.5.5.5 0 0 1 .4882812-.5z"/>
            <path d="m3 4h1v8h-1z"/>
            <path d="m11 4v2a1 1 0 0 1 -1 1h-5a2 2 0 0 0 -.0488281 0 2 2 0 0 0 -1.9511719 2h1a1 1 0 0 1 1-1h5a2 2 0 0 0 .048828 0 2 2 0 0 0 1.951172-2v-2z"/>
            <path d="m3.5 11a1.5 1.5 0 0 0 -1.5 1.5 1.5 1.5 0 0 0 1.5 1.5 1.5 1.5 0 0 0 1.5-1.5 1.5 1.5 0 0 0 -1.5-1.5zm-.011719 1a.5.5 0 0 1 .011719 0 .5.5 0 0 1 .5.5.5.5 0 0 1 -.5.5.5.5 0 0 1 -.5-.5.5.5 0 0 1 .4882812-.5z"/>
        </g>
        <path d="m11.5 2a1.5 1.5 0 0 0 -1.5 1.5 1.5 1.5 0 0 0 1.5 1.5 1.5 1.5 0 0 0 1.5-1.5 1.5 1.5 0 0 0 -1.5-1.5zm-.01172 1a.5.5 0 0 1 .01172 0 .5.5 0 0 1 .5.5.5.5 0 0 1 -.5.5.5.5 0 0 1 -.5-.5.5.5 0 0 1 .48828-.5z" class="ColorScheme-Highlight" fill="currentColor"/>
    </g>
</svg>

<svg xmlns="http://www.w3.org/2000/svg" viewBox="0 0 16 16">
    <g fill="currentColor" stroke-linecap="square">
        <g style="fill:#050505;opacity:.7">
            <path d="M3.5 2A1.5 1.5 0 0 0 2 3.5 1.5 1.5 0 0 0 3.5 5 1.5 1.5 0 0 0 5 3.5 1.5 1.5 0 0 0 3.5 2zm-.012 1A.5.5 0 0 1 3.5 3a.5.5 0 0 1 .5.5.5.5 0 0 1-.5.5.5.5 0 0 1-.5-.5.5.5 0 0 1 .488-.5z"/>
            <path d="M3 4h1v8H3z"/>
            <path d="M11 4v2a1 1 0 0 1-1 1H5a2 2 0 0 0-.049 0A2 2 0 0 0 3 9h1a1 1 0 0 1 1-1h5a2 2 0 0 0 .049 0A2 2 0 0 0 12 6V4zM3.5 11A1.5 1.5 0 0 0 2 12.5 1.5 1.5 0 0 0 3.5 14 1.5 1.5 0 0 0 5 12.5 1.5 1.5 0 0 0 3.5 11zm-.012 1a.5.5 0 0 1 .012 0 .5.5 0 0 1 .5.5.5.5 0 0 1-.5.5.5.5 0 0 1-.5-.5.5.5 0 0 1 .488-.5z"/>
        </g>
        <path d="M11.5 2A1.5 1.5 0 0 0 10 3.5 1.5 1.5 0 0 0 11.5 5 1.5 1.5 0 0 0 13 3.5 1.5 1.5 0 0 0 11.5 2zm-.012 1a.5.5 0 0 1 .012 0 .5.5 0 0 1 .5.5.5.5 0 0 1-.5.5.5.5 0 0 1-.5-.5.5.5 0 0 1 .488-.5z" style="fill:#a0b6cb"/>
    </g>
</svg>
